static/img/kroki/38db9ac63fbc319e73d87a8e0753d259.svg

<?xml version="1.0" encoding="us-ascii" standalone="no"?><svg xmlns="http://www.w3.org/2000/svg" xmlns:xlink="http://www.w3.org/1999/xlink" contentStyleType="text/css" height="925px" preserveAspectRatio="none" style="width:471px;height:925px;" version="1.1" viewBox="0 0 471 925" width="471px" zoomAndPan="magnify"><defs/><g><!--class digitalocean_resource--><g id="elem_digitalocean_resource"><rect codeLine="23" fill="#3D176E" height="74.0859" id="digitalocean_resource" rx="2.5" ry="2.5" style="stroke:#000D19;stroke-width:0.5;" width="223" x="7" y="517.64"/><ellipse cx="22" cy="537.5345" fill="#ADD1B2" rx="11" ry="11" style="stroke:#181818;stroke-width:1.0;"/><path d="M24.9688,543.1752 Q24.3906,543.472 23.75,543.6127 Q23.1094,543.7689 22.4063,543.7689 Q19.9063,543.7689 18.5781,542.1283 Q17.2656,540.472 17.2656,537.347 Q17.2656,534.222 18.5781,532.5658 Q19.9063,530.9095 22.4063,530.9095 Q23.1094,530.9095 23.75,531.0658 Q24.4063,531.222 24.9688,531.5189 L24.9688,534.2377 Q24.3438,533.6595 23.75,533.3939 Q23.1563,533.1127 22.5313,533.1127 Q21.1875,533.1127 20.5,534.1908 Q19.8125,535.2533 19.8125,537.347 Q19.8125,539.4408 20.5,540.5189 Q21.1875,541.5814 22.5313,541.5814 Q23.1563,541.5814 23.75,541.3158 Q24.3438,541.0345 24.9688,540.4564 L24.9688,543.1752 Z " fill="#000000"/><text fill="#D9B8FF" font-family="Helvetica" font-size="17" lengthAdjust="spacing" textLength="181" x="41" y="543.4198">digitalocean_resource</text><line style="stroke:#000D19;stroke-width:0.5;" x1="8" x2="229" y1="557.4291" y2="557.4291"/><text fill="#D9B8FF" font-family="sans-serif" font-size="14" font-weight="bold" lengthAdjust="spacing" textLength="27" x="18" y="579.4242">urn</text><text fill="#D9B8FF" font-family="sans-serif" font-size="14" lengthAdjust="spacing" textLength="48" x="45" y="579.4242">: string</text></g><!--class digitalocean_snapshot--><g id="elem_digitalocean_snapshot"><rect codeLine="26" fill="#3D176E" height="126.6797" id="digitalocean_snapshot" rx="2.5" ry="2.5" style="stroke:#000D19;stroke-width:0.5;" width="262" x="109.5" y="791.62"/><ellipse cx="140.25" cy="811.5145" fill="#ADD1B2" rx="11" ry="11" style="stroke:#181818;stroke-width:1.0;"/><path d="M143.2188,817.1552 Q142.6406,817.452 142,817.5927 Q141.3594,817.7489 140.6563,817.7489 Q138.1563,817.7489 136.8281,816.1083 Q135.5156,814.452 135.5156,811.327 Q135.5156,808.202 136.8281,806.5458 Q138.1563,804.8895 140.6563,804.8895 Q141.3594,804.8895 142,805.0458 Q142.6563,805.202 143.2188,805.4989 L143.2188,808.2177 Q142.5938,807.6395 142,807.3739 Q141.4063,807.0927 140.7813,807.0927 Q139.4375,807.0927 138.75,808.1708 Q138.0625,809.2333 138.0625,811.327 Q138.0625,813.4208 138.75,814.4989 Q139.4375,815.5614 140.7813,815.5614 Q141.4063,815.5614 142,815.2958 Q142.5938,815.0145 143.2188,814.4364 L143.2188,817.1552 Z " fill="#000000"/><text fill="#D9B8FF" font-family="Helvetica" font-size="17" lengthAdjust="spacing" textLength="185" x="162.75" y="817.3998">digitalocean_snapshot</text><line style="stroke:#000D19;stroke-width:0.5;" x1="110.5" x2="370.5" y1="831.4091" y2="831.4091"/><text fill="#D9B8FF" font-family="sans-serif" font-size="14" font-weight="bold" lengthAdjust="spacing" textLength="93" x="120.5" y="853.4042">resource_id</text><text fill="#D9B8FF" font-family="sans-serif" font-size="14" lengthAdjust="spacing" textLength="48" x="213.5" y="853.4042">: string</text><text fill="#D9B8FF" font-family="sans-serif" font-size="14" font-weight="bold" lengthAdjust="spacing" textLength="114" x="120.5" y="879.7011">resource_type</text><text fill="#D9B8FF" font-family="sans-serif" font-size="14" lengthAdjust="spacing" textLength="48" x="234.5" y="879.7011">: string</text><text fill="#D9B8FF" font-family="sans-serif" font-size="14" font-weight="bold" lengthAdjust="spacing" textLength="196" x="120.5" y="905.9979">snapshot_size_gigabytes</text><text fill="#D9B8FF" font-family="sans-serif" font-size="14" lengthAdjust="spacing" textLength="44" x="316.5" y="905.9979">: int64</text></g><!--class resource--><g id="elem_resource"><rect codeLine="31" fill="#3D176E" height="310.7578" id="resource" rx="2.5" ry="2.5" style="stroke:#000D19;stroke-width:0.5;" width="227" x="127" y="7"/><ellipse cx="195.75" cy="26.8945" fill="#ADD1B2" rx="11" ry="11" style="stroke:#181818;stroke-width:1.0;"/><path d="M198.7188,32.5352 Q198.1406,32.832 197.5,32.9727 Q196.8594,33.1289 196.1563,33.1289 Q193.6563,33.1289 192.3281,31.4883 Q191.0156,29.832 191.0156,26.707 Q191.0156,23.582 192.3281,21.9258 Q193.6563,20.2695 196.1563,20.2695 Q196.8594,20.2695 197.5,20.4258 Q198.1563,20.582 198.7188,20.8789 L198.7188,23.5977 Q198.0938,23.0195 197.5,22.7539 Q196.9063,22.4727 196.2813,22.4727 Q194.9375,22.4727 194.25,23.5508 Q193.5625,24.6133 193.5625,26.707 Q193.5625,28.8008 194.25,29.8789 Q194.9375,30.9414 196.2813,30.9414 Q196.9063,30.9414 197.5,30.6758 Q198.0938,30.3945 198.7188,29.8164 L198.7188,32.5352 Z " fill="#000000"/><text fill="#D9B8FF" font-family="Helvetica" font-size="17" lengthAdjust="spacing" textLength="71" x="221.25" y="32.7798">resource</text><line style="stroke:#000D19;stroke-width:0.5;" x1="128" x2="353" y1="46.7891" y2="46.7891"/><text fill="#D9B8FF" font-family="sans-serif" font-size="14" font-weight="bold" lengthAdjust="spacing" textLength="29" x="138" y="68.7842">age</text><text fill="#D9B8FF" font-family="sans-serif" font-size="14" lengthAdjust="spacing" textLength="66" x="167" y="68.7842">: duration</text><text fill="#D9B8FF" font-family="sans-serif" font-size="14" font-weight="bold" lengthAdjust="spacing" textLength="43" x="138" y="95.0811">atime</text><text fill="#D9B8FF" font-family="sans-serif" font-size="14" lengthAdjust="spacing" textLength="70" x="181" y="95.0811">: datetime</text><text fill="#D9B8FF" font-family="sans-serif" font-size="14" font-weight="bold" lengthAdjust="spacing" textLength="43" x="138" y="121.3779">ctime</text><text fill="#D9B8FF" font-family="sans-serif" font-size="14" lengthAdjust="spacing" textLength="70" x="181" y="121.3779">: datetime</text><text fill="#D9B8FF" font-family="sans-serif" font-size="14" font-weight="bold" lengthAdjust="spacing" textLength="14" x="138" y="147.6748">id</text><text fill="#D9B8FF" font-family="sans-serif" font-size="14" lengthAdjust="spacing" textLength="48" x="152" y="147.6748">: string</text><text fill="#D9B8FF" font-family="sans-serif" font-size="14" font-weight="bold" lengthAdjust="spacing" textLength="33" x="138" y="173.9717">kind</text><text fill="#D9B8FF" font-family="sans-serif" font-size="14" lengthAdjust="spacing" textLength="48" x="171" y="173.9717">: string</text><text fill="#D9B8FF" font-family="sans-serif" font-size="14" font-weight="bold" lengthAdjust="spacing" textLength="90" x="138" y="200.2686">last_access</text><text fill="#D9B8FF" font-family="sans-serif" font-size="14" lengthAdjust="spacing" textLength="66" x="228" y="200.2686">: duration</text><text fill="#D9B8FF" font-family="sans-serif" font-size="14" font-weight="bold" lengthAdjust="spacing" textLength="90" x="138" y="226.5654">last_update</text><text fill="#D9B8FF" font-family="sans-serif" font-size="14" lengthAdjust="spacing" textLength="66" x="228" y="226.5654">: duration</text><text fill="#D9B8FF" font-family="sans-serif" font-size="14" font-weight="bold" lengthAdjust="spacing" textLength="48" x="138" y="252.8623">mtime</text><text fill="#D9B8FF" font-family="sans-serif" font-size="14" lengthAdjust="spacing" textLength="70" x="186" y="252.8623">: datetime</text><text fill="#D9B8FF" font-family="sans-serif" font-size="14" font-weight="bold" lengthAdjust="spacing" textLength="43" x="138" y="279.1592">name</text><text fill="#D9B8FF" font-family="sans-serif" font-size="14" lengthAdjust="spacing" textLength="48" x="181" y="279.1592">: string</text><text fill="#D9B8FF" font-family="sans-serif" font-size="14" font-weight="bold" lengthAdjust="spacing" textLength="34" x="138" y="305.4561">tags</text><text fill="#D9B8FF" font-family="sans-serif" font-size="14" lengthAdjust="spacing" textLength="171" x="172" y="305.4561">: dictionary[string, string]</text></g><!--class snapshot--><g id="elem_snapshot"><rect codeLine="43" fill="#3D176E" height="231.8672" id="snapshot" rx="2.5" ry="2.5" style="stroke:#000D19;stroke-width:0.5;" width="199" x="265" y="438.75"/><ellipse cx="317.75" cy="458.6445" fill="#ADD1B2" rx="11" ry="11" style="stroke:#181818;stroke-width:1.0;"/><path d="M320.7188,464.2852 Q320.1406,464.582 319.5,464.7227 Q318.8594,464.8789 318.1563,464.8789 Q315.6563,464.8789 314.3281,463.2383 Q313.0156,461.582 313.0156,458.457 Q313.0156,455.332 314.3281,453.6758 Q315.6563,452.0195 318.1563,452.0195 Q318.8594,452.0195 319.5,452.1758 Q320.1563,452.332 320.7188,452.6289 L320.7188,455.3477 Q320.0938,454.7695 319.5,454.5039 Q318.9063,454.2227 318.2813,454.2227 Q316.9375,454.2227 316.25,455.3008 Q315.5625,456.3633 315.5625,458.457 Q315.5625,460.5508 316.25,461.6289 Q316.9375,462.6914 318.2813,462.6914 Q318.9063,462.6914 319.5,462.4258 Q320.0938,462.1445 320.7188,461.5664 L320.7188,464.2852 Z " fill="#000000"/><text fill="#D9B8FF" font-family="Helvetica" font-size="17" lengthAdjust="spacing" textLength="75" x="343.25" y="464.5298">snapshot</text><line style="stroke:#000D19;stroke-width:0.5;" x1="266" x2="463" y1="478.5391" y2="478.5391"/><text fill="#D9B8FF" font-family="sans-serif" font-size="14" font-weight="bold" lengthAdjust="spacing" textLength="89" x="276" y="500.5342">description</text><text fill="#D9B8FF" font-family="sans-serif" font-size="14" lengthAdjust="spacing" textLength="48" x="365" y="500.5342">: string</text><text fill="#D9B8FF" font-family="sans-serif" font-size="14" font-weight="bold" lengthAdjust="spacing" textLength="81" x="276" y="526.8311">encrypted</text><text fill="#D9B8FF" font-family="sans-serif" font-size="14" lengthAdjust="spacing" textLength="65" x="357" y="526.8311">: boolean</text><text fill="#D9B8FF" font-family="sans-serif" font-size="14" font-weight="bold" lengthAdjust="spacing" textLength="93" x="276" y="553.1279">owner_alias</text><text fill="#D9B8FF" font-family="sans-serif" font-size="14" lengthAdjust="spacing" textLength="48" x="369" y="553.1279">: string</text><text fill="#D9B8FF" font-family="sans-serif" font-size="14" font-weight="bold" lengthAdjust="spacing" textLength="72" x="276" y="579.4248">owner_id</text><text fill="#D9B8FF" font-family="sans-serif" font-size="14" lengthAdjust="spacing" textLength="48" x="348" y="579.4248">: string</text><text fill="#D9B8FF" font-family="sans-serif" font-size="14" font-weight="bold" lengthAdjust="spacing" textLength="129" x="276" y="605.7217">snapshot_status</text><text fill="#D9B8FF" font-family="sans-serif" font-size="14" lengthAdjust="spacing" textLength="48" x="405" y="605.7217">: string</text><text fill="#D9B8FF" font-family="sans-serif" font-size="14" font-weight="bold" lengthAdjust="spacing" textLength="78" x="276" y="632.0186">volume_id</text><text fill="#D9B8FF" font-family="sans-serif" font-size="14" lengthAdjust="spacing" textLength="48" x="354" y="632.0186">: string</text><text fill="#D9B8FF" font-family="sans-serif" font-size="14" font-weight="bold" lengthAdjust="spacing" textLength="96" x="276" y="658.3154">volume_size</text><text fill="#D9B8FF" font-family="sans-serif" font-size="14" lengthAdjust="spacing" textLength="44" x="372" y="658.3154">: int64</text></g><!--reverse link resource to digitalocean_resource--><g id="link_resource_digitalocean_resource"><path codeLine="52" d="M186.7394,335.3801 C163.9194,408.3801 144.01,472.08 129.81,517.51 " fill="none" id="resource-backto-digitalocean_resource" style="stroke:#FFAF37;stroke-width:2.0;"/><polygon fill="none" points="192.11,318.2,181.0127,333.59,192.4662,337.1703,192.11,318.2" style="stroke:#FFAF37;stroke-width:2.0;"/></g><!--reverse link digitalocean_resource to digitalocean_snapshot--><g id="link_digitalocean_resource_digitalocean_snapshot"><path codeLine="53" d="M140.1526,608.621 C160.3726,658.071 190.09,730.72 214.82,791.17 " fill="none" id="digitalocean_resource-backto-digitalocean_snapshot" style="stroke:#FFAF37;stroke-width:2.0;"/><polygon fill="none" points="133.34,591.96,134.599,610.8919,145.7063,606.3501,133.34,591.96" style="stroke:#FFAF37;stroke-width:2.0;"/></g><!--reverse link snapshot to digitalocean_snapshot--><g id="link_snapshot_digitalocean_snapshot"><path codeLine="54" d="M309.649,687.6304 C292.609,728.6104 280.99,756.57 266.48,791.46 " fill="none" id="snapshot-backto-digitalocean_snapshot" style="stroke:#FFAF37;stroke-width:2.0;"/><polygon fill="none" points="316.56,671.01,304.1089,685.3268,315.1892,689.9341,316.56,671.01" style="stroke:#FFAF37;stroke-width:2.0;"/></g><!--reverse link resource to snapshot--><g id="link_resource_snapshot"><path codeLine="55" d="M295.1378,335.3558 C307.8778,375.4758 315.93,400.81 327.91,438.5 " fill="none" id="resource-backto-snapshot" style="stroke:#FFAF37;stroke-width:2.0;"/><polygon fill="none" points="289.69,318.2,289.4192,337.1717,300.8564,333.5399,289.69,318.2" style="stroke:#FFAF37;stroke-width:2.0;"/></g><!--SRC=[XPDDRzim38Rl_XK6UWiM86ctfXbsQGCCswKOrjs6mQ0bsX5YImP5D_0-_liaEt7bZwOtu-L3yYKfxvN46CkAcxZ4CaMoaJqeNG516TyJcUFE58RYgoo3x6Op3duscjy47g74-0iMpyXAm9ZuiLVYeD7Q-3e8FO0uv6HgBRloJA2j2w7cWDeLOEqzCwcqPWpCo6rwbsLZSbpqwaQkDxSumGn9f1EoMgtaUZj6tcnrSUwUU5A_CLw7ItiqZ1ERanOjTT6b9mAJaq7FyLSzVWCfbSxZ3u7slVD46ccWF-r1cgEdCoXisCOo4XfkAjnDfiBjdSmsi_3Nr-18-DN5KkMAeJ02GIU4rjGaCFuJBHOrwSNYeoj5paxqRuwt6YgxDzpov-H4oI0lqBsTGUISdbXtl2HNEQGDe_MCqdpxlcywy0LvMqNM1AoCzWghijE0qNyxJSne8sDkMqF1zU84X71_qAX36wahNsiKAMVwQ2Y7WpBaNKKbV1fGyxEBlJinl_fH1okLQ0MfokSCwg4Mr5IChVtKcC8Tmydcw9vJ0eK2Ey0xVJJzo_8Pk1ucF9kYBYU7FAd-ME69-kDy-hjSBkSVL3J_p6OophQYVX6Ne56bNlyF]--></g></svg>

<svg xmlns="http://www.w3.org/2000/svg" width="471" height="925" viewBox="0 0 471 925"><rect width="223" height="74.086" x="7" y="517.64" fill="#3D176E" rx="2.5" ry="2.5" style="stroke:#000d19;stroke-width:.5"/><circle cx="22" cy="537.534" r="11" fill="#ADD1B2" style="stroke:#181818;stroke-width:1"/><path d="M24.969 543.175q-.578.297-1.219.438-.64.156-1.344.156-2.5 0-3.828-1.64-1.312-1.657-1.312-4.782t1.312-4.781q1.328-1.657 3.828-1.657.703 0 1.344.157.656.156 1.219.453v2.719q-.625-.579-1.219-.844-.594-.281-1.219-.281-1.343 0-2.031 1.078-.687 1.062-.687 3.156t.687 3.172q.688 1.062 2.031 1.062.625 0 1.219-.265.594-.282 1.219-.86z"/><text x="41" y="543.42" fill="#D9B8FF" font-family="Helvetica" font-size="17" textLength="181">digitalocean_resource</text><path d="M8 557.429h221" style="stroke:#000d19;stroke-width:.5"/><text x="18" y="579.424" fill="#D9B8FF" font-family="sans-serif" font-size="14" font-weight="bold" textLength="27">urn</text><text x="45" y="579.424" fill="#D9B8FF" font-family="sans-serif" font-size="14" textLength="48">: string</text><rect width="262" height="126.68" x="109.5" y="791.62" fill="#3D176E" rx="2.5" ry="2.5" style="stroke:#000d19;stroke-width:.5"/><circle cx="140.25" cy="811.514" r="11" fill="#ADD1B2" style="stroke:#181818;stroke-width:1"/><path d="M143.219 817.155q-.578.297-1.219.438-.64.156-1.344.156-2.5 0-3.828-1.64-1.312-1.657-1.312-4.782t1.312-4.781q1.328-1.657 3.828-1.657.703 0 1.344.157.656.156 1.219.453v2.719q-.625-.578-1.219-.844-.594-.281-1.219-.281-1.344 0-2.031 1.078-.687 1.062-.687 3.156t.687 3.172q.688 1.062 2.031 1.062.625 0 1.219-.265.594-.282 1.219-.86z"/><text x="162.75" y="817.4" fill="#D9B8FF" font-family="Helvetica" font-size="17" textLength="185">digitalocean_snapshot</text><path d="M110.5 831.409h260" style="stroke:#000d19;stroke-width:.5"/><text x="120.5" y="853.404" fill="#D9B8FF" font-family="sans-serif" font-size="14" font-weight="bold" textLength="93">resource_id</text><text x="213.5" y="853.404" fill="#D9B8FF" font-family="sans-serif" font-size="14" textLength="48">: string</text><text x="120.5" y="879.701" fill="#D9B8FF" font-family="sans-serif" font-size="14" font-weight="bold" textLength="114">resource_type</text><text x="234.5" y="879.701" fill="#D9B8FF" font-family="sans-serif" font-size="14" textLength="48">: string</text><text x="120.5" y="905.998" fill="#D9B8FF" font-family="sans-serif" font-size="14" font-weight="bold" textLength="196">snapshot_size_gigabytes</text><text x="316.5" y="905.998" fill="#D9B8FF" font-family="sans-serif" font-size="14" textLength="44">: int64</text><rect width="227" height="310.758" x="127" y="7" fill="#3D176E" rx="2.5" ry="2.5" style="stroke:#000d19;stroke-width:.5"/><circle cx="195.75" cy="26.895" r="11" fill="#ADD1B2" style="stroke:#181818;stroke-width:1"/><path d="M198.719 32.535q-.578.297-1.219.438-.64.156-1.344.156-2.5 0-3.828-1.64-1.312-1.657-1.312-4.782t1.312-4.781q1.328-1.656 3.828-1.656.703 0 1.344.156.656.156 1.219.453v2.719q-.625-.578-1.219-.844-.594-.281-1.219-.281-1.344 0-2.031 1.078-.687 1.062-.687 3.156t.687 3.172q.688 1.062 2.031 1.062.625 0 1.219-.265.594-.281 1.219-.86z"/><text x="221.25" y="32.78" fill="#D9B8FF" font-family="Helvetica" font-size="17" textLength="71">resource</text><path d="M128 46.789h225" style="stroke:#000d19;stroke-width:.5"/><text x="138" y="68.784" fill="#D9B8FF" font-family="sans-serif" font-size="14" font-weight="bold" textLength="29">age</text><text x="167" y="68.784" fill="#D9B8FF" font-family="sans-serif" font-size="14" textLength="66">: duration</text><text x="138" y="95.081" fill="#D9B8FF" font-family="sans-serif" font-size="14" font-weight="bold" textLength="43">atime</text><text x="181" y="95.081" fill="#D9B8FF" font-family="sans-serif" font-size="14" textLength="70">: datetime</text><text x="138" y="121.378" fill="#D9B8FF" font-family="sans-serif" font-size="14" font-weight="bold" textLength="43">ctime</text><text x="181" y="121.378" fill="#D9B8FF" font-family="sans-serif" font-size="14" textLength="70">: datetime</text><text x="138" y="147.675" fill="#D9B8FF" font-family="sans-serif" font-size="14" font-weight="bold" textLength="14">id</text><text x="152" y="147.675" fill="#D9B8FF" font-family="sans-serif" font-size="14" textLength="48">: string</text><text x="138" y="173.972" fill="#D9B8FF" font-family="sans-serif" font-size="14" font-weight="bold" textLength="33">kind</text><text x="171" y="173.972" fill="#D9B8FF" font-family="sans-serif" font-size="14" textLength="48">: string</text><text x="138" y="200.269" fill="#D9B8FF" font-family="sans-serif" font-size="14" font-weight="bold" textLength="90">last_access</text><text x="228" y="200.269" fill="#D9B8FF" font-family="sans-serif" font-size="14" textLength="66">: duration</text><text x="138" y="226.565" fill="#D9B8FF" font-family="sans-serif" font-size="14" font-weight="bold" textLength="90">last_update</text><text x="228" y="226.565" fill="#D9B8FF" font-family="sans-serif" font-size="14" textLength="66">: duration</text><text x="138" y="252.862" fill="#D9B8FF" font-family="sans-serif" font-size="14" font-weight="bold" textLength="48">mtime</text><text x="186" y="252.862" fill="#D9B8FF" font-family="sans-serif" font-size="14" textLength="70">: datetime</text><text x="138" y="279.159" fill="#D9B8FF" font-family="sans-serif" font-size="14" font-weight="bold" textLength="43">name</text><text x="181" y="279.159" fill="#D9B8FF" font-family="sans-serif" font-size="14" textLength="48">: string</text><text x="138" y="305.456" fill="#D9B8FF" font-family="sans-serif" font-size="14" font-weight="bold" textLength="34">tags</text><text x="172" y="305.456" fill="#D9B8FF" font-family="sans-serif" font-size="14" textLength="171">: dictionary[string, string]</text><rect width="199" height="231.867" x="265" y="438.75" fill="#3D176E" rx="2.5" ry="2.5" style="stroke:#000d19;stroke-width:.5"/><circle cx="317.75" cy="458.644" r="11" fill="#ADD1B2" style="stroke:#181818;stroke-width:1"/><path d="M320.719 464.285q-.578.297-1.219.438-.64.156-1.344.156-2.5 0-3.828-1.64-1.312-1.657-1.312-4.782t1.312-4.781q1.328-1.656 3.828-1.656.703 0 1.344.156.656.156 1.219.453v2.719q-.625-.579-1.219-.844-.594-.281-1.219-.281-1.344 0-2.031 1.078-.687 1.062-.687 3.156t.687 3.172q.688 1.062 2.031 1.062.625 0 1.219-.265.594-.281 1.219-.86z"/><text x="343.25" y="464.53" fill="#D9B8FF" font-family="Helvetica" font-size="17" textLength="75">snapshot</text><path d="M266 478.539h197" style="stroke:#000d19;stroke-width:.5"/><text x="276" y="500.534" fill="#D9B8FF" font-family="sans-serif" font-size="14" font-weight="bold" textLength="89">description</text><text x="365" y="500.534" fill="#D9B8FF" font-family="sans-serif" font-size="14" textLength="48">: string</text><text x="276" y="526.831" fill="#D9B8FF" font-family="sans-serif" font-size="14" font-weight="bold" textLength="81">encrypted</text><text x="357" y="526.831" fill="#D9B8FF" font-family="sans-serif" font-size="14" textLength="65">: boolean</text><text x="276" y="553.128" fill="#D9B8FF" font-family="sans-serif" font-size="14" font-weight="bold" textLength="93">owner_alias</text><text x="369" y="553.128" fill="#D9B8FF" font-family="sans-serif" font-size="14" textLength="48">: string</text><text x="276" y="579.425" fill="#D9B8FF" font-family="sans-serif" font-size="14" font-weight="bold" textLength="72">owner_id</text><text x="348" y="579.425" fill="#D9B8FF" font-family="sans-serif" font-size="14" textLength="48">: string</text><text x="276" y="605.722" fill="#D9B8FF" font-family="sans-serif" font-size="14" font-weight="bold" textLength="129">snapshot_status</text><text x="405" y="605.722" fill="#D9B8FF" font-family="sans-serif" font-size="14" textLength="48">: string</text><text x="276" y="632.019" fill="#D9B8FF" font-family="sans-serif" font-size="14" font-weight="bold" textLength="78">volume_id</text><text x="354" y="632.019" fill="#D9B8FF" font-family="sans-serif" font-size="14" textLength="48">: string</text><text x="276" y="658.315" fill="#D9B8FF" font-family="sans-serif" font-size="14" font-weight="bold" textLength="96">volume_size</text><text x="372" y="658.315" fill="#D9B8FF" font-family="sans-serif" font-size="14" textLength="44">: int64</text><g fill="none"><path d="M186.74 335.38c-22.82 73-42.73 136.7-56.93 182.13" style="stroke:#ffaf37;stroke-width:2"/><path d="m192.11 318.2-11.097 15.39 11.453 3.58z" style="stroke:#ffaf37;stroke-width:2"/></g><path fill="none" d="M140.153 608.621c20.22 49.45 49.937 122.099 74.667 182.549m-81.48-199.21 1.259 18.932 11.107-4.542z" style="stroke:#ffaf37;stroke-width:2"/><g fill="none"><path d="M309.649 687.63c-17.04 40.98-28.659 68.94-43.169 103.83" style="stroke:#ffaf37;stroke-width:2"/><path d="m316.56 671.01-12.451 14.317 11.08 4.607z" style="stroke:#ffaf37;stroke-width:2"/></g><path fill="none" d="M295.138 335.356c12.74 40.12 20.792 65.454 32.772 103.144m-38.22-120.3-.27 18.972 11.436-3.632z" style="stroke:#ffaf37;stroke-width:2"/></svg>
